X:953
T:Grainne's Welcome Home
T:Welcome Home Grainne
R:reel
H:see also jig#450 and march#25
Z:id:hn-reel-953
M:C|
L:1/8
K:Amix
cdBc ABcd | efec eaed | cdBc ABcA |1 ~d3c dfed :|2 ~d3c dfag ||
fdfa ecAc | ~e3f ecAg | fdfa ecAc | ~d3c dfag |
fdfa ecAc | ~e3f ecAc | def^g aecA | dcde (3fga ed ||

